svgs/sharp-solid/bracket-curly.svg

<svg xmlns="http://www.w3.org/2000/svg" viewBox="0 0 256 512"><!--! Font Awesome Pro 6.6.0 by @fontawesome - https://fontawesome.com License - https://fontawesome.com/license (Commercial License) Copyright 2024 Fonticons, Inc. --><path d="M96 32L64 32l0 32 0 114.7L9.4 233.4 0 242.7l0 26.5 9.4 9.4L64 333.3 64 448l0 32 32 0 96 0 32 0 0-64-32 0-64 0 0-96 0-13.3-9.4-9.4L77.3 256l41.4-41.4 9.4-9.4 0-13.3 0-96 64 0 32 0 0-64-32 0L96 32z"/></svg>

<svg xmlns="http://www.w3.org/2000/svg" viewBox="0 0 256 512"><!--! Font Awesome Pro 6.4.2 by @fontawesome - https://fontawesome.com License - https://fontawesome.com/license (Commercial License) Copyright 2023 Fonticons, Inc. --><path d="M96 32H64V64 178.7L9.4 233.4 0 242.7v26.5l9.4 9.4L64 333.3V448v32H96h96 32V416H192 128V320 306.7l-9.4-9.4L77.3 256l41.4-41.4 9.4-9.4V192 96h64 32V32H192 96z"/></svg>
